packages/astro-components-stencil/src/icons/report-problem.svg

<svg xmlns="http://www.w3.org/2000/svg" viewBox="0 0 24 24"><g xmlns="http://www.w3.org/2000/svg" id="report-problem" fill-rule="nonzero">
            <path d="M2.73 21h18.53c.77 0 1.25-.83.87-1.5l-9.27-16a.996.996 0 00-1.73 0l-9.27 16c-.38.67.1 1.5.87 1.5zM13 18h-2v-2h2v2zm-1-4c-.55 0-1-.45-1-1v-2c0-.55.45-1 1-1s1 .45 1 1v2c0 .55-.45 1-1 1z"/>
        </g></svg>

<svg width="24" height="24" viewBox="0 0 24 24" fill="none" xmlns="http://www.w3.org/2000/svg">
<path fill-rule="evenodd" clip-rule="evenodd" d="M2.73004 21H21.26C22.03 21 22.51 20.17 22.13 19.5L12.86 3.5C12.47 2.83 11.51 2.83 11.13 3.5L1.86004 19.5C1.48004 20.17 1.96004 21 2.73004 21ZM13 18H11V16H13V18ZM11 13C11 13.55 11.45 14 12 14C12.55 14 13 13.55 13 13V11C13 10.45 12.55 10 12 10C11.45 10 11 10.45 11 11V13Z" fill="black"/>
</svg>
